X:74
T:?
M:4/4
L:1/8
N:Duet by Tommy and Siobhan Peoples; follows Farrell Gara
D:Tommy Peoples: Traditional Irish Music Played on the Fiddle
K:D
F2AF DFAF | G2BG DGBd | c2Ac eAcA | dcde fdAG | F2AF DFAF | G~B3 d~B3 |
Acef geAc |1 eddc dBAG :|2 eddc defg |:
a2fd a2fd | a2fd edBd | (3eee ef gfga | be (3eee begb | a2fd a2fd |
a2fd edBA | ~F3A GBdB | AFGE D4 :|


